!!!COM: Bach, Johann Sebastian
!!!CDT: 1685/3//-1750/7/28/
!!!OTL@@DE: Christus ist erstanden, hat ueberwunden
!!!OTL@EN:  Christ is risen, has conquered
!!!AGN: 4-Part Chorale
!!!SCT: BH 200
!!!SCT: BWV 284
**harm	**root	**kern	**kern	**kern	**kern
*	*Iorgan	*Iorgan	*Iorgan	*Iorgan	*Iorgan
!	!	!bass	!tenor	!alto	!soprno
*	*	*clefF4	*clefF4	*clefG2	*clefG2
*M4/4	*M4/4	*M4/4	*M4/4	*M4/4	*M4/4
*met(c)	*met(c)	*met(c)	*met(c)	*met(c)	*met(c)
*MM60	*MM60	*MM60	*MM60	*MM60	*MM60
*k[f#]	*k[f#]	*k[f#]	*k[f#]	*k[f#]	*k[f#]
*G:	*G:	*G:	*G:	*G:	*G:
=1-	=1-	=1-	=1-	=1-	=1-
I	4CC	4G	4B	4d	4g
Vb	4GG	4F#	4A	[4d	4d
vii/V	4FF#	4E	4G	8d]	4e
.	.	.	.	8c#	.
V	4GG	8D	4A	4d	4f#
.	.	8C	.	.	.
=2	=2	=2	=2	=2	=2
Ib	4CC	4BB	8G	4.d	2g
.	.	.	8F	.	.
IV	4FF	4C	4E	.	.
.	.	.	.	[8c	.
I;	4CC;	4GG;	4D;	8c]	4g;
.	.	.	.	8B;	.
V/IV	4CC	8G	4G	[4B	4d
.	.	8F	.	.	.
=3	=3	=3	=3	=3	=3
vi	8AA	4E	4G	8B]	4g
viiob/V	8FF#	.	.	8c#	.
v	4GG	4D	4A	4d	4f
iio7b/v	4AA	4GG	4B-	4d	2e
V/V	4DD	4AA	8A	4c#	.
.	.	.	8G	.	.
=4	=4	=4	=4	=4	=4
v;	2GG;	2DD;	2F;	2A;	2d;
v	4GG	4D	4F	8A	4d
.	.	.	.	4B-	.
viioD7/v	8FF#	4C#	4G	.	4e
V7b/v	8DD	.	.	[8A	.
=5	=5	=5	=5	=5	=5
v	4GG	4D	8F	8A]	4f
.	.	.	8D	8f	.
iv/v	4CC	4GG	4B-	8e	4g
.	.	.	.	8d	.
Vc	4GG	4AA	[4A	8c#	4f
.	.	.	.	4d	.
V/v	4DD	4AAA	8.A]	.	4e
.	.	.	.	8c#	.
.	.	.	16G	.	.
!!linebreak: 3
=6	=6	=6	=6	=6	=6
v;	2GG;	2DD;	2F;	2A;	2d;
I	4CC	8GG	[4G	8B	4d
.	.	8AA	.	8c	.
Ib	4CC	8BB	8G]	4d	4g
.	.	8C	8A	.	.
=7	=7	=7	=7	=7	=7
Ic	4CC	4D	8B	4d	4g
.	.	.	16A	.	.
.	.	.	16G	.	.
V	4GG	4DD	8A	4d	4f#
.	.	.	[8c	.	.
I;	2CC;	2GG;	8c]	2d;	2g;
.	.	.	16B	.	.
.	.	.	16A	.	.
.	.	.	4B;	.	.
=8	=8	=8	=8	=8	=8
IV	4FF	8C	4c	4e	4g
.	.	8D	.	.	.
IV	4FF	8C	4c	8e	4g
.	.	8BB	.	8d	.
ii	4DD	8AA	8c	8c	4a
.	.	8BB	8B	8d	.
iib	4DD	8C	8A	[4e	4a
.	.	8D	8B	.	.
=9	=9	=9	=9	=9	=9
IVb	4FF	8E	[4c	4e]	4g
.	.	8C	.	.	.
ii7	8DD	8D	8c]	8f	4f
V7/IV	8CC	8GG	8B	8d	.
IV;	2FF;	2C;	2G;	2c;	2e;
=10	=10	=10	=10	=10	=10
V/IV	4CC	8G	4G	4B	4d
.	.	8F	.	.	.
vi	8AA	4E	4G	8B	4e
viiob/v	8FF#	.	.	8c#	.
v	4GG	8D	4A	[4d	4f
.	.	8FF	.	.	.
iio7b/v	8AA	8GG	8B-	8d]	4e
V/v	8DD	8AA	16A	8c#	.
.	.	.	16G	.	.
!!linebreak: 3
=11	=11	=11	=11	=11	=11
-III;	2EE-;	2BB-;	2F;	2d;	2d;
v	4GG	4D	8F	8A	4f
.	.	.	8A	[8f	.
V/-VII	4FF	4C	4c	8f]	4g
.	.	.	.	8e	.
=12	=12	=12	=12	=12	=12
-VII	4BB-	8F	4c	2f	4a
.	.	8E	.	.	.
IVb/-VII	8EE-	8D	8B-	.	8b-
Ic/-VII	8BB-	8C	8c	.	8a
ii7b/-VII	8CC	8BB-	8d	4f	2g
ii7/-VII	8CC	8GG	8B-	.	.
V/-VII	4FF	4C	8G	4e	.
.	.	.	8c	.	.
=13	=13	=13	=13	=13	=13
I/-VII;	2BB-;	2FF;	2c;	2f;	2a;
I/-VII	4BB-	4Fy	4c	4.f	4a
V/-VII	4FF	4C	4c	.	4g
.	.	.	.	8e	.
=14	=14	=14	=14	=14	=14
I/-VII	4BB-	8F	4c	4f	4a
.	.	8E	.	.	.
iio7d/v	8AA	8D	8B-	4e	4g
V7b/v	8DD	8C#	8A	.	.
v	4GG	8D	4A	4d	4f
.	.	8E	.	.	.
V7d/IV	4CC	8F	4G	4B	4d
.	.	8G	.	.	.
=15	=15	=15	=15	=15	=15
IV	4FF	4C	4G	8c	4e
.	.	.	.	8B	.
V7	4GG	4D	4D	8A	4f#
.	.	.	.	8c	.
I;	2CC;	2GG;	2D;	2B;	2g;
==	==	==	==	==	==
*-	*-	*-	*-	*-	*-
!!!YOR1: Ludwig Erk, Peters Editions of 1850, 1865; rev. in light of Friedrich
!!!YOR2: Smend, Peters Edition of 1932 & Albert Riemenschneider, 1941.
!!!RDT: 1987 September
!!!YER: 1995 March 1
!!chor2scor: -l 3 -s 0.6 -o %b.pmx
!!!YEC: Copyright 1994, David Huron
!!!YEC: Changes/Additions 2001 by Craig Stuart Sapp
!!!YEN: United States of America
!!!SMA: J.S. Bach Chorale Harmonizations, edited by Ludwig Erk, C.F. Peters
!!!PDT: 1850, 1865
